X:36
T:Walking on The Moon
C:Addie Harper
M:4/4
Q:1/4=200
K:A
ef|:a2 a2 fe ec |e2 e2 cB Bc |A2 A2 ce ee |
fe ee ce fg |a2 a2 fe ec |e2 a2 cB Bc |A2 A2 ce ec |1
Bc cB A3/2e  :|2Bc cB A3/2|
:=c|c2 c2 BA Ac |
e2 e2 fe ef |a2 a2 fe ec |fe ec B2 e2 |c2 c2 BA Ac |
e2 e2 fe ef |a2 [a2A2] fe ec |Bc cB A3 :|
